X:1
T:Title
%%score { ( 1 2 ) | ( 3 4 ) }
L:1/8
M:4/4
K:E
V:1 treble nm="Grand Piano"
V:2 treble 
V:3 bass 
V:4 bass 
V:1
 z4 z2[Q:1/4=100] z F | G3 G A2 F2 | B4 [GB]2 GF | E2 E2 [EG]3 [DF] | [DF]6 z F | G3 G A2 F2 | %6
 B4 B2 .[A,CG]2 | [G,B,E]2 [G,B,E]2 [B,EG]3 [A,DF] | [G,E]6 [EGB]2 | [EAc]3 [EAc] [EAc]2 [Ad]2 | %10
 [Ge]4 [GB]2 [EG]2 | [GB]3 [GB] [FA]2 [DF]2 | [EG]6 [GB]2 | c3 c c2 [Ad]2 | [Ge]4 [GB]2 G2 | %15
 B3 F d2 c2 |[M:3/4] [DB]6 |[M:1/4] [FB]2 |[M:4/4] B3 B A2 F2 | G2 B4 B2 | [DB]3 [DB] [DA]2 [DF]2 | %21
 [EG]6 [GB]2 | c3 c c2 [Ad]2 | [Ge]4 [GB]2 [EG]2 | [DB]3 [DB] [DA]2 [DF]2 |[M:3/4] E6 |] %26
V:2
 z4 z2 E2 | x8 | x8 | x8 | z4 z2 E2 | x8 | x8 | x8 | x8 | x8 | x8 | x8 | x8 | x8 | x8 | x8 | %16
[M:3/4] x6 |[M:1/4] x2 |[M:4/4] x8 | x8 | x8 | x8 | x8 | x8 | x8 |[M:3/4] x6 |] %26
V:3
 z4 z2 G,A, | [E,B,E]3 [E,B,E] [E,CE]2 [E,A,E]2 | z4 z2 .[E,E]2 | %3
 [G,B,]2 [E,G,B,]2 [B,,B,]3 [B,,B,] | z4 z2 .G,2 | [E,B,E]3 [E,B,E] [E,CE]2 [E,A,E]2 | %6
 [E,G,E]4 [E,G,E]2 z F | B,,2 B,,2 B,,3 B,, | E,6 E,2 | A,3 A, A,2 [F,B,]2 | %10
 [E,B,]4 [E,E]2 [E,B,]2 | [B,,B,]3 [B,,B,] [B,,B,]2 [B,,B,]2 | [E,B,]6 [E,E]2 | %13
 [A,EA]3 [A,EA] [A,EA]2[K:bass] [F,B,]2 | [E,B,]4 [E,E]2 [E,B,E]2 | %15
 [F,B,D]3 [F,B,D] [F,B,F]2 [F,^A,E]2 |[M:3/4] [B,,B,]6 |[M:1/4] [B,,A,]2 | %18
[M:4/4] [E,G,E]3 [E,G,E] [E,CE]2 [E,A,E]2 | [E,B,E]2 [E,G,E]4 [E,G,E]2 | %20
 [B,,F,]3 [B,,F,] [B,,F,]2 [B,,B,]2 | [E,B,]6 [E,E]2 | [A,EA]3 [A,EA] [A,EA]2[K:bass] [F,B,]2 | %23
 [E,B,]4 [E,E]2 [E,B,]2 | [B,,B,]3 [B,,B,] [B,,F,]2 [B,,A,]2 |[M:3/4] [E,G,]6 |] %26
V:4
 z4 z2 E,2 | x8 | [E,G,E]4 [E,B,]2 B,-[F,B,D] | x8 | [B,,B,]6 E,-[E,A,] | x8 | z4 z2 A,,2 | x8 | %8
 x8 | x8 | x8 | x8 | x8 | x6[K:bass] x2 | x8 | x8 |[M:3/4] x6 |[M:1/4] x2 |[M:4/4] x8 | x8 | x8 | %21
 x8 | x6[K:bass] x2 | x8 | x8 |[M:3/4] x6 |] %26

